X:146
T:Delight of Sudbury, The
M:C
L:1/8
B:Thompson's Compleat Collection of 200 Favourite Country Dances, vol. 2 (London, 1765)
Z:Transcribed and edited by Flynn Titford-Mock, 2007
Z:abc's:AK/Fiddler's Companion
K:G
[G2D2B2g2] fe dBAG | ABcA BGFG | {ef}g2 fe dBAG | ABcA "tr"B2A2 :|
|: (DF)(FA) (Ac)(cB) | (Bd)(dg) (gd)(cB) | (ec)(ge) (dB)(gB) | AcBA G2 [G,2G2] :|

